X:1
T:Beethoven - Sonata 32, Mvt.2.
%%score { ( 1 2 ) | ( 3 4 ) }
L:1/8
Q:1/4=20
M:9/16
K:C
V:1 treble nm="Piano" snm="Pno."
V:2 treble 
V:3 bass 
V:4 bass 
V:1
"^Adagio molto, semplice (e)cantabile""^Arietta"!p!"_(sempre legatoissimo" (cG/) | G3 (dG/) | %2
 G3 G3/2 | (G3/2e3/2c3/2) | c3/2B3/2B3/2 |!<(! (c3/2e3/2g3/2)!<)! |!p!!>(! (g3/2f3/2d[Ac]/)!>)! | %7
!p! B3/2c3/2dG/ |!<(! G3!<)! |]!p! (cG/) | G3 (dG/) | G3 G3/2 | (G3/2e3/2c3/2) | c3/2B3/2B3/2 | %14
!<(! (c3/2e3/2g3/2)!<)! |!p!!>(! (g3/2f3/2d[Ac]/)!>)! |!p! B3/2c3/2dG/ |!<(! G3!<)! E3/2 |] %18
[Q:1/4=25]!p! c3 (cB/) | B3 (Be/) | [Be]3/2([ce]3/2[Bd][Ac]/) | ([Ac]3/2[^GB]3/2[EAc]3/2) | %22
"_cresc." [=GBd]3 [GBd]3/2 | [Gce]3 [Acf]3/2 | [GBd]3/2[GBd]3/2([GBd][Bdg]/) | %25
!>(! ([Bdg][Gce]<)!>)!!p![Gce] E3/2 |]!p! c3 (cB/) | B3 (Be/) | [Be]3/2([ce]3/2[Bd][Ac]/) | %29
 ([Ac]3/2[^GB]3/2[EAc]3/2) |"_cresc." [=GBd]3 [GBd]3/2 | [Gce]3 [Acf]3/2 | %32
 [GBd]3/2[GBd]3/2([GBd][Bdg]/) |!>(! ([Bdg][Gce]/)!>)!!p! [Gce]3/2"_dolce" (cE/ |] AE/ GF/ dD/ |] %35
"_sempre legato" GD/ FE/ GF/) | (AG/ eE/ cE/) | ([_Ec][DB]/ [CA][B,G]/ [CA][DB]/) | %38
!<(! (c=E/ eG/ [_Bg][GB]/)!<)! |!mp!!>(! (gA/ fA/ dc/)!>)! |!p! (c=B/c^c/) c/[Gd]/G/ | %41
!<(! G3!<)!!p! (cE/ |] AE/ GF/ dD/ | GD/ FE/ GF/) | (AG/ eE/ cE/) | %45
 ([_Ec][DB]/ [CA][B,G]/ [CA][DB]/) |!<(! (c=E/ eG/ [_Bg][GB]/)!<)! |!mp!!>(! (gA/ fA/ dc/)!>)! | %48
!p! (c=B/c^c/) c/[Gd]/G/ |]!<(! G3/2-!<)!!p!!>(! (G/^G/A/!>)!!p! B/E/E/) | (cE/) | (FE/ c[CE]/ | %52
 B([B,E]/)[CE]/)c/B/ (c/[EB]/)([B-e]/ | fe/) (ed/) d/c/c/- | %54
"_cresc." ([Ac]/[^GB]/)[GB]/- ([GB]/[Ec]/)[Ec]/- ([Ec]/!mp![Bd]/)!p![Bd]/ |"_cresc." d3 ^d3/2 | %56
 e3/2 (eg/) (gf/) | (ed/^cd/) (d/a/g/) |!>(! (g/f/e/ f/e/)!>)!!p! (E/F/E/)(E/ | c[CE]/) |] %60
 (FE/ c[CE]/ | B([B,E]/)[CE]/)c/B/ (c/[EB]/)([B-e]/ | fe/) (ed/) d/c/c/- | %63
"_cresc." ([Ac]/[^GB]/)[GB]/- ([GB]/[Ec]/)[Ec]/- ([Ec]/!mp![Bd]/)!p![Bd]/ |"_cresc." d3 ^d3/2 | %65
 e3/2 (eg/) (gf/) | (ed/^cd/) (d/a/g/) |]!>(! ([dg]/[Bf]/[c-e]/ [c-f]/[ce]/[ce]/)!>)! |] %68
[M:6/16]!p!"_dolce""^L'istesso tempo"[Q:1/4=30] z | %69
"_mano sinistra" (3:2:4(e/c/4B/c/4 (3:2:4d/B/4^A/B/4) z | x (3:2:4G/E/4^D/E/4 (3:2:4G/E/4G/F/4 | %71
 (3:2:4A/^F/4A/G/4 [Ge] [Gc] | (3:2:4c/B/4d/c/4"_sempre legato" (3:2:4c/^A/4=c/B/4 [GB] | %73
"_cresc." c (3:2:4(e/d/4f/e/4 g) |!mp!!>(! g/g/- (3:2:4g/e/4g/f/4 (3:2:4e/^c/4e/!>)!d/4 | %75
!p! =c/B/ c/^c/ (3d3/4d/G/4 |!<(! G/G/-!<)!!p!!>(! G/G/!>)! |]!p! z | %78
 (3:2:4(e/c/4B/c/4 (3:2:4d/B/4^A/B/4) z | x (3:2:4G/E/4^D/E/4 (3:2:4G/E/4G/F/4 | %80
 (3:2:4A/^F/4A/G/4 [Ge] [Gc] | (3:2:4c/B/4d/c/4 (3:2:4c/^A/4=c/B/4 [GB] | %82
"_cresc." c (3:2:4(e/d/4f/e/4 g) |!mp!!>(! g/g/- (3:2:4g/e/4g/f/4 (3:2:4e/^c/4e/!>)!d/4 | %84
!p! =c/B/ c/^c/ (3d3/4d/G/4 |!<(! G/G/-!<)!!p!!>(! (3:2:4G/^G/4A/B/4!>)!!p! (3:2:4E/E/4-E/E/4 |] %86
 (3(c3/4-c/B/4 (3c3/4-c/B/4 (3c3/4-c/B/4) | (3(B3/4-B/c/4 (3B3/4-B/c/4 (3B3/4-B/e/4) | %88
 (3[Be]/-[Be]3/4[ce]/4 (3[ce]/-[ce]3/4[^GBd]/4 (3:2:4([EBd]/[=FAc]/4[^FAc]/[B,GB]/4) | %89
"_cresc." (3:2:4[B,^GB]/[B,GB]/4-[B,GB]/[B,GB]/4- (3:2:4[B,GB]/[Cc]/4-[Cc]/[Cc]/4- (3:2:4[Cc]/!mf![Dd]/4-[Dd]/!p!!>![dbd']/4 | %90
"_cresc." (3:2:4(!>![dbd']/d/4^c/d/4 d) (3:2:4d/^d/4f/e/4 | e- e/e/- (3:2:4e/(e/4g/f/4) | %92
 (3:2:4(d/^f/4a/g/4-) (3(g3/4a/g/4) (3(g3/4a/g/4) | %93
!f!!>(! (3g/-g3/4!p!f/4!>)!!p! e/ z/ (3:2:4z/ E/4-E/E/4 |] %94
 (3(c3/4-c/B/4 (3c3/4-c/B/4 (3c3/4-c/B/4) | (3(B3/4-B/c/4 (3B3/4-B/c/4 (3B3/4-B/e/4) | %96
 (3[Be]/-[Be]3/4[ce]/4 (3[ce]/-[ce]3/4[^GBd]/4 (3:2:4([EBd]/[=FAc]/4[^FAc]/[B,GB]/4) | %97
"_cresc." (3:2:4[B,^GB]/[B,GB]/4-[B,GB]/[B,GB]/4- (3:2:4[B,GB]/[Cc]/4-[Cc]/[Cc]/4- (3:2:4[Cc]/!mf![Dd]/4-[Dd]/!p!!>![dbd']/4 | %98
"_cresc." (3:2:4(!>![dbd']/d/4^c/d/4 d) (3:2:4d/^d/4f/e/4 | e- e/e/- (3:2:4e/(e/4g/f/4) | %100
 (3:2:4(d/^f/4a/g/4-) (3(g3/4a/g/4) (3(g3/4a/g/4) | %101
!f!!>(! (3g/-g3/4f/4!>)!!p! (3:2:4e/[Q:1/4=25]g/4-[Q:1/4=20]g/[Q:1/4=15]g/4 x |] %102
[M:12/32]!f!"^L'istesso tempo"[Q:1/4=40] (c'/4g/8e/4c/8 G/4E/8C/4G,/8) | %103
[Q:1/4=25] (3:2:6[EG]3/8-[EG]/4[EG]/8-[EG]3/8-[EG]/4[EG]/8 (3:2:6[FG]3/8-[FG]/4[FG]/8-[FG]3/8-[FG]/4[FG]/8 (3:2:8(f'/4d'/8b/4g/8f/4d/8B/4G/8) | %104
!f!"_sempre" (3:2:6[FG]3/8-[FG]/4[FG]/8-[FG]3/8-[FG]/4[FG]/8 (3:2:6G3/8-G/4G/8-G3/8-G/4G/8 (3:2:8(g'/4e'/8c'/4g/8e/4c/8G/4g/8) | %105
 (3:2:6[G_B^cg]3/8-[GBcg]/4[G-Bc-g-]/8[G=Bcg]3/8-[GBcg]/4[GBdg]/8 (3:2:6[GBg]3/8-[GBg]/4([G-Bg-]/8 [G=cg]3/8-)[Gcg]/4[Gcg]/8 (3:2:6[ege']3/8-[ege']/4[ege']/8- [ege']3/8-[ege']/4[cec']/8 | %106
 (3:2:8(c'/4a/8^f/4_e/8c/4A/8^F/4[Ec]/8) (3:2:8(b/4g/8d/4B/8G/4D/8B,/4)[Bd_ab]/8-!<(! (3:2:6[Bdab]3/8-[Bdab]/4[B-d-ab-]/8 [Bdgb]3/8-[Bdgb]/4[Bdgb]/8!<)! | %107
!ff! (3:2:8(c'/4!f!g/8!>!=e/4c/8G/4E/8!>!e/4c/8) (3:2:8!>!e/4c/8!>!g/4e/8c/4G/8!>!e/4c/8 (3:2:8!>!g/4e/8!>!c'/4g/8e/4c/8!>!g/4e/8 | %108
!ff! (3:2:7z3/8 !>!g/4e/8^c/4e/8!>!g/4e/8 (3:2:8!>!f/4d/8!>!f/4c/8f/4F/8!>!A/4F/8 (3:2:8!>!A/4F/8!>!f/4d/8A/4a/8!>!f/4d/8!f! | %109
 (3:2:8!>!c/4B/8!>!f/4d/8b/4f/8!>!d/4B/8 (3:2:8!>!d/4c/8!>!_a/4f/8c'/4=a/8!>!f/4c/8 (3:2:8!>!_e/4d/8!>!d'/4d/8d'/4d/8!>!d'/4[dg]/8 | %110
 (3:2:6g3/8-g/4g/8- g3/8-g/4g/8- (3:2:7g3/8-g/4(g/8 f/4g/8a/4b/8) |] %111
[Q:1/4=40]!f! (!>!c'/4g/8e/4c/8 G/4E/8C/4G,/8) | %112
[Q:1/4=25] (3:2:6[EG]3/8-[EG]/4[EG]/8-[EG]3/8-[EG]/4[EG]/8 (3:2:6[FG]3/8-[FG]/4[FG]/8-[FG]3/8-[FG]/4[FG]/8 (3:2:8(f'/4d'/8b/4g/8f/4d/8B/4G/8) | %113
!f!"_sempre" (3:2:6[FG]3/8-[FG]/4[FG]/8-[FG]3/8-[FG]/4[FG]/8 (3:2:6G3/8-G/4G/8-G3/8-G/4G/8 (3:2:8(g'/4e'/8c'/4g/8e/4c/8G/4g/8) | %114
 (3:2:6[G_B^cg]3/8-[GBcg]/4[G-Bc-g-]/8[G=Bcg]3/8-[GBcg]/4[GBdg]/8 (3:2:6[GBg]3/8-[GBg]/4([G-Bg-]/8 [G=cg]3/8-)[Gcg]/4[Gcg]/8 (3:2:6[ege']3/8-[ege']/4[ege']/8- [ege']3/8-[ege']/4[cec']/8 | %115
 (3:2:8(c'/4a/8^f/4_e/8c/4A/8^F/4[Ec]/8) (3:2:8(b/4g/8d/4B/8G/4D/8B,/4)[Bd_ab]/8-!<(! (3:2:6[Bdab]3/8-[Bdab]/4[B-d-ab-]/8 [Bdgb]3/8-[Bdgb]/4[Bdgb]/8!<)! | %116
!ff! (3:2:8(c'/4!f!g/8!>!=e/4c/8G/4E/8!>!e/4c/8) (3:2:8!>!e/4c/8!>!g/4e/8c/4G/8!>!e/4c/8 (3:2:8!>!g/4e/8!>!c'/4g/8e/4c/8!>!g/4e/8 | %117
!ff! (3:2:7z3/8 !>!g/4e/8^c/4e/8!>!g/4e/8 (3:2:8!>!f/4d/8!>!f/4c/8f/4F/8!>!A/4F/8 (3:2:8!>!A/4F/8!>!f/4d/8A/4a/8!>!f/4d/8!f! | %118
 (3:2:8!>!c/4B/8!>!f/4d/8b/4f/8!>!d/4B/8 (3:2:8!>!d/4c/8!>!_a/4f/8c'/4=a/8!>!f/4c/8 (3:2:8!>!_e/4d/8!>!d'/4d/8d'/4d/8!>!d'/4[dg]/8 | %119
 z3 |] z3 | z3 | z3 | z3 | z3 | z3 | z3 | z3 | z3 | z3 | z3 | z3 | z3 | z3 | z3 | z3 | z3 | z3 | %138
 z3 | z3 | z3 | z3 | z3 | z3 | z3 | z3 | z3 | z3 | z3 | z3 | z3 | z3 | z3 | z3 | z3 | z3 | z3 | %157
 z3 | z3 | z3 | z3 | z3 | z3 | z3 | z3 | z3 | z3 | z3 | z3 | z3 | z3 | z3 | z3 | z3 | z3 | z3 | %176
 z3 | z3 | z3 | z3 | z3 | z3 | z3 | z3 | z3 | z3 |] %186
V:2
 E3/2 | (E3/2F3/2D3/2) | (D3/2E3/2F3/2) | x3/2 E3/2G3/2 | E3/2D3/2[DG]3/2 | G3 G3/2 | A3 AD/ | %7
 [DG]3/2[CG]3/2[DG]D/- | D(D/!p!!>(![CE][B,F]/)!>)! |] E3/2 | (E3/2F3/2D3/2) | (D3/2E3/2F3/2) | %12
 x3/2 E3/2G3/2 | E3/2D3/2[DG]3/2 | G3 G3/2 | A3 AD/ | [DG]3/2[CG]3/2[DG]D/- | %17
 D([CE]/!p!!>(![B,F][CE]/)!>)! x3/2 |] E3 E3/2 | E3 x3/2 | x9/2 | x9/2 | x9/2 | x9/2 | x9/2 | %25
 x9/2 |] E3 E3/2 | E3 x3/2 | x9/2 | x9/2 | x9/2 | x9/2 | x9/2 | x9/2 |] x9/2 |] x9/2 | x9/2 | %37
 x9/2 | x9/2 | AG/ A x/ A^F/ | [D=F]3/2[DF]->[DF][DF]/[DF]/ | %41
 ([DF]/E/D/!p!!>(! C/D/B,/)!>)! x3/2 |] x9/2 | x9/2 | x9/2 | x9/2 | x9/2 | AG/ A x/ A^F/ | %48
 [D=F]3/2[DF]->[DF][DF]/[DF]/ |] [DF]/E/F/ E/[DE]/[CE]/ [B,E]/C/D/ | x C/ | [B,D] x2 | x9/2 | %53
 B/B/c/ c^G/ G/A/A/- | x9/2 | ((BF/EF/)) BF/ | _BE/ [GB][Be]/ A3/2 | [F=B]3/2[FB]3/2 Bd/ | x9/2 | %59
 x3/2 |] [B,D] x2 | x9/2 | B/B/c/ c^G/ G/A/A/- | x9/2 | ((BF/EF/)) BF/ | _BE/ [GB][Be]/ A3/2 | %66
 [F=B]3/2[FB]3/2 Bd/ |] x3 |][M:6/16] x | (3:2:4G/E/4D/E/4 (3:2:4F/D/4^C/D/4 x | x3 | x3 | %72
 (3:2:4E/D/4F/E/4 (3:2:4E/^C/4E/D/4 D | G E/G/ (3:2:4d/^c/4e/d/4 | (3:2:4^c/B/4d/c/4 A/A/- A/A/ | %75
 A/D/ (3:2:4G/E/4G/=F/4- (3:2:4F/D/4F/[DF]/4 | (3:2:4[DF]/D/4B,/C/4 (3:2:4D/C/4F/E/4 |] x | %78
 (3:2:4G/E/4D/E/4 (3:2:4F/D/4^C/D/4 x | x3 | x3 | (3:2:4E/D/4F/E/4 (3:2:4E/^C/4E/D/4 D | %82
 G E/G/ (3:2:4d/^c/4e/d/4 | (3:2:4^c/B/4d/c/4 A/A/- A/A/ | %84
 A/D/ (3:2:4G/E/4G/=F/4- (3:2:4F/D/4F/[DF]/4 | %85
 (3:2:4[DF]/D/4[B,F]/[CE]/4 (3:2:4E/[DE]/4[CE]/[B,-E]/4 (3:2:4B,/[B,D]/4[A,C]/[^G,D]/4 |] %86
 (3(C/^D/4E3/4- (3E/D/4E3/4- (3E/D/4E3/4-) | (3(E/F/4E3/4- (3E/F/4E3/4- (3E/F/4E3/4) | x3 | x3 | %90
 x (3:2:4d/B/4^A/B/4 G/G/- | (3:2:4G/c/4B/c/4 (3:2:4c/_B/4A/B/4 (3B3/4B/A/4 | %92
 (3A/c/4d3/4- (3d/^d/4e3/4- (3:2:4e/=f/4[Bf]/[B=d]/4 | %93
 (3:2:4[Bd]/B/4c/d/4 (3:2:4G/B,/4C/D/4 (3:2:4C/B,/4A,/[^G,D]/4 |] %94
 (3(C/^D/4E3/4- (3E/D/4E3/4- (3E/D/4E3/4-) | (3(E/F/4E3/4- (3E/F/4E3/4- (3E/F/4E3/4) | x3 | x3 | %98
 x (3:2:4d/B/4^A/B/4 G/G/- | (3:2:4G/c/4B/c/4 (3:2:4c/_B/4A/B/4 (3B3/4B/A/4 | %100
 (3A/c/4d3/4- (3d/^d/4e3/4- (3:2:4e/=f/4[Bf]/[B=d]/4 | (3:2:4[Bd]/B/4c/d/4 (3:2:4G/d/4e/f/4 x |] %102
[M:12/32] x3/2 | x3 | x3 | x3 | x3 | x3 | x3 | x3 | %110
 (3:2:8(d/4=e/8f/4)([df]/8 B/4c/8d/4)(c/8 (3:2:5d/4e/8f/4)e/8 x3/4 |] x3/2 | x3 | x3 | x3 | x3 | %116
 x3 | x3 | x3 | x3 |] x3 | x3 | x3 | x3 | x3 | x3 | x3 | x3 | x3 | x3 | x3 | x3 | x3 | x3 | x3 | %135
 x3 | x3 | x3 | x3 | x3 | x3 | x3 | x3 | x3 | x3 | x3 | x3 | x3 | x3 | x3 | x3 | x3 | x3 | x3 | %154
 x3 | x3 | x3 | x3 | x3 | x3 | x3 | x3 | x3 | x3 | x3 | x3 | x3 | x3 | x3 | x3 | x3 | x3 | x3 | %173
 x3 | x3 | x3 | x3 | x3 | x3 | x3 | x3 | x3 | x3 | x3 | x3 | x3 |] %186
V:3
 [C,,G,,]3/2 | [C,,G,,]3/2[D,,G,,]3/2[B,,,G,,]3/2 | [B,,,G,,]3/2[C,,G,,]3/2[D,,G,,]3/2 | %3
 [E,,G,,]3/2[C,,G,,]3/2[E,,G,,]3/2 | G,,,3/2G,,3/2(([G,,,G,,][F,,,F,,]/ | %5
 [E,,,E,,]3)) [E,,,E,,]3/2 | [D,,,D,,]3 ([F,,,F,,][^F,,,^F,,]/) | (G,,3/2A,,3/2B,,)B,,/- | %8
 B,,(B,,/C,D,/) |] [C,,G,,]3/2 | [C,,G,,]3/2[D,,G,,]3/2[B,,,G,,]3/2 | %11
 [B,,,G,,]3/2[C,,G,,]3/2[D,,G,,]3/2 | [E,,G,,]3/2[C,,G,,]3/2[E,,G,,]3/2 | %13
 G,,,3/2G,,3/2(([G,,,G,,][F,,,F,,]/ | [E,,,E,,]3)) [E,,,E,,]3/2 | %15
 [D,,,D,,]3 ([F,,,F,,][^F,,,^F,,]/) | (G,,3/2A,,3/2B,,)B,,/- | (B,,C,/D,C,/) E,3/2 |] %18
 A,,3/2E,3/2E,3/2 | ^G,,3/2E,3/2E,3/2 | [^G,,E,]3/2[A,,E,]3/2[A,,E,]3/2 | E,,3/2E,3/2[A,,,A,,]3/2 | %22
 [=G,,,=G,,]3 [G,,,G,,]3/2 | [C,,C,]3 [F,,,F,,]3/2 | [G,,,G,,]3/2[G,,,G,,]3/2[G,,,G,,][G,,,G,,]/ | %25
 ([G,,,G,,][C,,C,]/) [C,,C,]3/2 E,3/2 |] A,,3/2E,3/2E,3/2 | ^G,,3/2E,3/2E,3/2 | %28
 [^G,,E,]3/2[A,,E,]3/2[A,,E,]3/2 | E,,3/2E,3/2[A,,,A,,]3/2 | [=G,,,=G,,]3 [G,,,G,,]3/2 | %31
 [C,,C,]3 [F,,,F,,]3/2 | [G,,,G,,]3/2[G,,,G,,]3/2[G,,,G,,][G,,,G,,]/ | %33
 ([G,,,G,,][C,,C,]/) ([C,,C,]/G,/F,/ E,/C,/G,/-) |] (G,/^C,/G,/- G,/D,/G,/- G,/^A,,/G,/- |] %35
 G,/B,,/G,/- G,/=C,/G,/ E,/D,/G,/-) | (G,/^D,/E,/ G,/C,/G,/- G,/E,/G,/- | %37
 G,/^F,,/G,/- G,/G,,/G,/- G,/=F,,/G,/-) | (G,/E,,/G,/- G,/C,,/E,/- E,/C,,/E,/-) | %39
 E,/^C,,/E,/- E,/D,,/F,/ ^F,/^F,,/A,/ | (_A,/G,,/G,/ =A,/G,,/_B,/- B,/=B,/)B,/ | %41
 (B,/C/F,/ E,/F,/D,/) E,/C,/G,/- |] (G,/^C,/G,/- G,/D,/G,/- G,/^A,,/G,/- | %43
 G,/B,,/G,/- G,/=C,/G,/ E,/D,/G,/) | (G,/^D,/E,/ G,/C,/G,/- G,/E,/G,/- | %45
 G,/^F,,/G,/- G,/G,,/G,/- G,/=F,,/G,/-) | (G,/E,,/G,/- G,/C,,/E,/- E,/C,,/E,/-) | %47
 E,/^C,,/E,/- E,/D,,/F,/ ^F,/^F,,/A,/ | (_A,/G,,/G,/ =A,/G,,/_B,/- B,/=B,/)B,/ |] %49
 (B,/C/D/ C/B,/A,/ ^G,/A,/B,/) | A,/A,,/E,/- | (E,/^G,,/E,/- E,/A,,/E,/- | %52
 E,/^G,,/E,/- E,/A,,/E,/- E,/G,,/^G,/-) | G,/"_sempre legato"^G,/A,/- A,/A,/B,/- B,/C/D/ | %54
 (^D/E/)E/- (E/A,/)A,/- (A,/=G,/)G,/- | (G,/G,,/G,/- G,/G,,/G,/- G,/G,,/G,/-) | %56
 G,/C,,/C,/- C,/C,,/C,/- C,/F,,,/F,,/ | G,,/G,,,/G,,/- G,,/G,,,/G,,/- G,,/G,,,/B,,/ | %58
 x/ G,/(G,/ A,/)G,/ x2 | E,/A,,/E,/- |] (E,/^G,,/E,/- E,/A,,/E,/- | %61
 E,/^G,,/E,/- E,/A,,/E,/- E,/G,,/^G,/-) | G,/^G,/A,/- A,/A,/B,/- B,/C/D/ | %63
 (^D/E/)E/- (E/A,/)A,/- (A,/=G,/)G,/- | (G,/G,,/G,/- G,/G,,/G,/- G,/G,,/G,/-) | %65
 G,/C,,/C,/- C,/C,,/C,/- C,/F,,,/F,,/ | G,,/G,,,/G,,/- G,,/G,,,/G,,/- G,,/G,,,/B,,/ |] %67
 x/ G,/(G,/ A,/)G,/G,/ |][M:6/16] (3:2:4(C/G,/4^F,/G,/4) | %69
 G,/G,/- G,/G,/ (3:2:4(D,/G,,/4^F,,/G,,/4) | (3:2:4=F,/D,/4^C,/D,/4 x2 | %71
 ^D,/E,/ (3:2:4(=D,/B,,/4D,/C,/4 (3:2:4=F,/^D,/4F,/E,/4) | G, G,, (3:2:4(F,,/E,,/4G,,/F,,/4 | %73
 (3:2:4E,,/D,,/4F,,/E,,/4) (3:2:4(C,,/B,,,/4D,,/C,,/4 (3:2:4_B,,,/A,,,/4C,,/B,,,/4) | %74
 A,,,/A,,/ D,,/D,/ F,,/^F,,/- | (3:2:4F,,/(^F,,/4A,,/G,,/4) A,,/_B,,/- B,,/=B,,/- | B,,/ x/ x |] %77
 (3:2:4(C/G,/4^F,/G,/4) | G,/G,/- G,/G,/ (3:2:4(D,/G,,/4^F,,/G,,/4) | (3:2:4=F,/D,/4^C,/D,/4 x2 | %80
 ^D,/E,/ (3:2:4(=D,/B,,/4D,/C,/4 (3:2:4=F,/^D,/4F,/E,/4) | G, G,, (3:2:4(F,,/E,,/4G,,/F,,/4 | %82
 (3:2:4E,,/D,,/4F,,/E,,/4) (3:2:4(C,,/B,,,/4D,,/C,,/4 (3:2:4_B,,,/A,,,/4C,,/B,,,/4) | %83
 A,,,/A,,/ D,,/D,/ F,,/^F,,/- | (3:2:4F,,/(^F,,/4A,,/G,,/4) A,,/_B,,/- B,,/=B,,/- | %85
 B,,/ x/ (3:2:4C,/B,,/4A,,/^G,,/4- (3:2:4G,,/G,,/4A,,/B,,/4 |] %86
 (3A,,/^D,/4E,3/4- (3E,/D,/4E,3/4- (3E,/D,/4E,3/4- | %87
 (3E,/F,/4E,3/4- (3E,/F,/4E,3/4- (3E,/F,/4E,3/4 | %88
 (3G,,/[^G,,,^G,,]/4[A,,,A,,]3/4- (3[A,,,A,,]/[A,,,A,,]/4([B,,,B,,]3/4- (3:2:4[B,,,B,,]/[D,,D,]/4[^D,,^D,]/[E,,E,]/4) | %89
 (3:2:4[E,,E,]/[E,,E,]/4-[E,,E,]/[E,,E,]/4- (3:2:4[E,,E,]/[A,,,A,,]/4-[A,,,A,,]/[A,,,A,,]/4- (3:2:4[A,,,A,,]/[=G,,,=G,,]/4-[G,,,G,,]/[G,,,G,,]/4 | %90
 (3:2:4[G,,,G,,]/ F/4E/F/4 (3:2:4F/D/4^C/D/4 (3B,3/4D/=C/4 | %91
 (3:2:4C/E/4D/E/4 (3:2:4E/G/4^F/G/4- (3:2:4G/G/4E/=F/4 | %92
 (3C3/4C/B,/4- (3B,/B,/4C3/4 (3:2:4^C/D/4[D=F]/[DF]/4 | %93
 (3:2:4[G,DF]/[G,,G,]/4[A,,A,]/[B,,B,]/4 (3:2:4[C,C]/(D,/4E,/F,/4 (3:2:4E,/D,/4C,/B,,/4) |] %94
 (3A,,/^D,/4E,3/4- (3E,/D,/4E,3/4- (3E,/D,/4E,3/4- | %95
 (3E,/F,/4E,3/4- (3E,/F,/4E,3/4- (3E,/F,/4E,3/4 | %96
 (3G,,/[^G,,,^G,,]/4[A,,,A,,]3/4- (3[A,,,A,,]/[A,,,A,,]/4([B,,,B,,]3/4- (3:2:4[B,,,B,,]/[D,,D,]/4[^D,,^D,]/[E,,E,]/4) | %97
 (3:2:4[E,,E,]/[E,,E,]/4-[E,,E,]/[E,,E,]/4- (3:2:4[E,,E,]/[A,,,A,,]/4-[A,,,A,,]/[A,,,A,,]/4- (3:2:4[A,,,A,,]/[=G,,,=G,,]/4-[G,,,G,,]/[G,,,G,,]/4 | %98
 (3:2:4[G,,,G,,]/ F/4E/F/4 (3:2:4F/D/4^C/D/4 (3B,3/4D/=C/4 | %99
 (3:2:4C/E/4D/E/4 (3:2:4E/G/4^F/G/4- (3:2:4G/G/4E/=F/4 | %100
 (3C3/4C/B,/4- (3B,/B,/4C3/4 (3:2:4^C/D/4[D=F]/[DF]/4 | %101
 (3:2:4[G,DF]/([G,,G,]/4[A,,A,]/[B,,B,]/4 (3:2:4[C,C]/)[K:treble]B/4c/d/4 x[K:bass] |] %102
[M:12/32] z x/ | %103
 (3:2:8(C,,/4E,,/8G,,/4C,/8E,/4G,/8B,/4C/8) (3:2:8(D,,/4G,,/8B,,/4D,/8G,/4B,/8^C/4D/8) z | %104
 (3:2:8(D,,/4G,,/8B,,/4D,/8G,/4B,/8^C/4D/8) (3:2:8(E,,/4G,,/8=C,/4E,/8G,/4=C/8^D/4E/8) z | %105
 (3:2:8(E,,/4_B,,/8^C,/4E,/8F,/4=B,/8D/4F/8) (3:2:8(^D,/4G,/8B,/4^D/8 E,/4G,/8=C/4E/8) (3:2:8(=C,/4E,/8G,/4C/8) (C,,/4E,,/8G,,/4C,/8) | %106
 (3:2:6[G,,,G,,]3/8-[G,,,G,,]/4[G,,,G,,]/8-[G,,,G,,]3/8-[G,,,G,,]/4[G,,,G,,]/8- (3:2:6[G,,,G,,]3/8-[G,,,G,,]/4[G,,,G,,]/8-[G,,,G,,]3/8-[G,,,G,,]/4[F,,,F,,]/8 (3:2:8(F,,,/4B,,,/8D,,/4F,,/8B,,/4D,/8E,/4F,/8) | %107
 (3:2:5[E,,E,]3/8 z3/8 z3/8 !>!G/4E/8 (3:2:8C/4G,/8!>!E,/4C,/8 E/4C/8!>!G,/4E,/8 (3:2:8E/4C/8!>!G,/4E,/8 C/4G,/8!>!E,/4C,/8 | %108
 (3:2:8!>!A,/4G,/8!>!E,/4^C,/8A,,/4G,/8!>!E,/4C,/8 (3:2:8!>!A,/4F,/8!>!D,/4F,/8D,/4D/8!>!F/4D/8 (3:2:8F/4D/8!>!A,/4F,/8F/4D/8!>!A,/4F,/8 | %109
[K:treble] (3:2:8G,/4F/8!>!D/4B,/8 G,/4B,/8!>!D/4F/8 (3:2:8_A,/4_A/8!>!F/4C/8=A,/4C/8!>!F/4=A/8 (3:2:8_B,/4_B/8!>!B,/4B/8B,/4B/8!>!=B,/4=B/8 | %110
 (3:2:8(B,/4C/8D/4)(B,/8 D/4E/8F/4)(E/8!>(! (3:2:8B/4c/8d/4)(c/8 d/4e/8f/4!>)!!mf!d/8) |] z x/ | %112
[K:bass] (3:2:8(C,,/4E,,/8G,,/4C,/8E,/4G,/8B,/4C/8) (3:2:8(D,,/4G,,/8B,,/4D,/8G,/4B,/8^C/4D/8) z | %113
 (3:2:8(D,,/4G,,/8B,,/4D,/8G,/4B,/8^C/4D/8) (3:2:8(E,,/4G,,/8=C,/4E,/8G,/4=C/8^D/4E/8) z | %114
 (3:2:8(E,,/4_B,,/8^C,/4E,/8F,/4=B,/8D/4F/8) (3:2:8(^D,/4G,/8B,/4^D/8 E,/4G,/8=C/4E/8) (3:2:8(=C,/4E,/8G,/4C/8) (C,,/4E,,/8G,,/4C,/8) | %115
 (3:2:6[G,,,G,,]3/8-[G,,,G,,]/4[G,,,G,,]/8-[G,,,G,,]3/8-[G,,,G,,]/4[G,,,G,,]/8- (3:2:6[G,,,G,,]3/8-[G,,,G,,]/4[G,,,G,,]/8-[G,,,G,,]3/8-[G,,,G,,]/4[F,,,F,,]/8 (3:2:8(F,,,/4B,,,/8D,,/4F,,/8B,,/4D,/8E,/4F,/8) | %116
 (3:2:5[E,,E,]3/8 z3/8 z3/8 !>!G/4E/8 (3:2:8C/4G,/8!>!E,/4C,/8 E/4C/8!>!G,/4E,/8 (3:2:8E/4C/8!>!G,/4E,/8 C/4G,/8!>!E,/4C,/8 | %117
 (3:2:8!>!A,/4G,/8!>!E,/4^C,/8A,,/4G,/8!>!E,/4C,/8 (3:2:8!>!A,/4F,/8!>!D,/4F,/8D,/4D/8!>!F/4D/8 (3:2:8F/4D/8!>!A,/4F,/8F/4D/8!>!A,/4F,/8 | %118
[K:treble] (3:2:8G,/4F/8!>!D/4B,/8 G,/4B,/8!>!D/4F/8 (3:2:8_A,/4_A/8!>!F/4C/8=A,/4C/8!>!F/4=A/8 (3:2:8_B,/4_B/8!>!B,/4B/8B,/4B/8!>!=B,/4=B/8 | %119
 z3 |] z3 | z3 | z3 | z3 | z3 | z3 | z3 | z3 | z3 | z3 | z3 | z3 | z3 | z3 | z3 | z3 | z3 | z3 | %138
 z3 | z3 | z3 | z3 | z3 | z3 | z3 | z3 | z3 | z3 | z3 | z3 | z3 | z3 | z3 | z3 | z3 | z3 | z3 | %157
 z3 | z3 | z3 | z3 | z3 | z3 | z3 | z3 | z3 | z3 | z3 | z3 | z3 | z3 | z3 | z3 | z3 | z3 | z3 | %176
 z3 | z3 | z3 | z3 | z3 | z3 | z3 | z3 | z3 | z3 |] %186
V:4
 x3/2 | x9/2 | x9/2 | x9/2 | G,,,3- x3/2 | x9/2 | x9/2 | G,,,3 x3/2 | x3 |] x3/2 | x9/2 | x9/2 | %12
 x9/2 | G,,,3- x3/2 | x9/2 | x9/2 | G,,,3 x3/2 | x9/2 |] A,,3 A,,3/2 | ^G,,3 G,,3/2 | x9/2 | %21
 E,,3 x3/2 | x9/2 | x9/2 | x9/2 | x9/2 |] A,,3 A,,3/2 | ^G,,3 G,,3/2 | x9/2 | E,,3 x3/2 | x9/2 | %31
 x9/2 | x9/2 | x9/2 |] x9/2 |] x9/2 | x9/2 | x9/2 | x9/2 | x9/2 | x9/2 | x9/2 |] x9/2 | x9/2 | %44
 x9/2 | x9/2 | x9/2 | x9/2 | x9/2 |] x9/2 | x3/2 | x3 | x9/2 | x9/2 | x9/2 | x9/2 | x9/2 | x9/2 | %58
 B,,/G,,/C,/- C,/-C,/ (E,/F,/E,/)E,/- | x3/2 |] x3 | x9/2 | x9/2 | x9/2 | x9/2 | x9/2 | x9/2 |] %67
 B,,/G,,/C,/- C,C,/ |][M:6/16] x | x3 | A,,/B,,/- B,,/=C,/ ^C,/D,/ | x3 | x3 | x3 | x3 | %75
 x G,,- G,,/G,,/- | (3:2:4G,,/(B,,/4D,/E,/4 (3:2:4F,/E,/4D,/C,/4) |] x | x3 | %79
 A,,/B,,/- B,,/=C,/ ^C,/D,/ | x3 | x3 | x3 | x3 | x G,,- G,,/G,,/- | (3:2:4G,,/B,,/4D,/C,/4 x2 |] %86
 (3A,,3/4-A,,/^G,,/4 (3A,,3/4-A,,/G,,/4 (3A,,3/4-A,,/G,,/4 | %87
 (3^G,,3/4-G,,/A,,/4 (3G,,3/4-G,,/A,,/4 (3G,,3/4-G,,/G,,/4- | x3 | x3 | x/ G,/- G,- G,/G,/- | %91
 G,/C/- C/C/- C/=F,/ | (3:2:4^F,/A,/4F,/G,/4- G,/G,/- (3G,3/4G,/G,/4 | x3 |] %94
 (3A,,3/4-A,,/^G,,/4 (3A,,3/4-A,,/G,,/4 (3A,,3/4-A,,/G,,/4 | %95
 (3^G,,3/4-G,,/A,,/4 (3G,,3/4-G,,/A,,/4 (3G,,3/4-G,,/G,,/4- | x3 | x3 | x/ G,/- G,- G,/G,/- | %99
 G,/C/- C/C/- C/=F,/ | (3:2:4^F,/A,/4F,/G,/4- G,/G,/- (3G,3/4G,/G,/4 | %101
 x4/3[K:treble] x5/3[K:bass] |][M:12/32] x3/2 | x3 | x3 | x3 | x3 | x3 | x3 |[K:treble] x3 | x2 |] %111
 x3/2 |[K:bass] x3 | x3 | x3 | x3 | x3 | x3 |[K:treble] x3 | x3 |] x3 | x3 | x3 | x3 | x3 | x3 | %126
 x3 | x3 | x3 | x3 | x3 | x3 | x3 | x3 | x3 | x3 | x3 | x3 | x3 | x3 | x3 | x3 | x3 | x3 | x3 | %145
 x3 | x3 | x3 | x3 | x3 | x3 | x3 | x3 | x3 | x3 | x3 | x3 | x3 | x3 | x3 | x3 | x3 | x3 | x3 | %164
 x3 | x3 | x3 | x3 | x3 | x3 | x3 | x3 | x3 | x3 | x3 | x3 | x3 | x3 | x3 | x3 | x3 | x3 | x3 | %183
 x3 | x3 | x3 |] %186

